icons/wheelchair_alt_fill.svg

<svg width="48" height="48" viewBox="0 0 48 48" fill="none" xmlns="http://www.w3.org/2000/svg">
<path d="M16 33C16.5523 33 17 32.5523 17 32C17 31.4477 16.5523 31 16 31C15.4477 31 15 31.4477 15 32C15 32.5523 15.4477 33 16 33Z" fill="black"/>
<path fill-rule="evenodd" clip-rule="evenodd" d="M8 6H12.7808L15.5308 17H26C27.6569 17 29 18.3431 29 20V23H30C31.6569 23 33 24.3431 33 26V27.414L39.0713 33.4853L41.1926 31.364L42.6068 32.7782L39.0713 36.3137L33 30.2425V36.1707C34.1652 36.5825 35 37.6938 35 39C35 40.6569 33.6569 42 32 42C30.3431 42 29 40.6569 29 39C29 37.6938 29.8348 36.5825 31 36.1707V29H25.5422C25.8396 29.947 26 30.9548 26 32C26 37.5228 21.5228 42 16 42C10.4772 42 6 37.5228 6 32C6 26.9043 9.81139 22.6988 14.7389 22.0788L11.2192 8H8V6ZM27 23V20C27 19.4477 26.5523 19 26 19H16.0308L16.7884 22.0306C18.0622 22.13 19.269 22.468 20.3641 23H27ZM12 32C12 29.7909 13.7909 28 16 28C18.2091 28 20 29.7909 20 32C20 34.2091 18.2091 36 16 36C13.7909 36 12 34.2091 12 32ZM32 38C31.4477 38 31 38.4477 31 39C31 39.5523 31.4477 40 32 40C32.5523 40 33 39.5523 33 39C33 38.4477 32.5523 38 32 38Z" fill="black"/>
</svg>

<svg
  xmlns="http://www.w3.org/2000/svg"
  width="24"
  height="24"
  viewBox="0 0 24 24"
  fill="none"
  stroke="currentColor"
  stroke-width="2"
  stroke-linecap="round"
  stroke-linejoin="round"
>
  <path d="M16 33a1 1 0 1 0 0-2 1 1 0 0 0 0 2" />
  <path
    fill-rule="evenodd"
    d="M8 6h4.78l2.75 11H26a3 3 0 0 1 3 3v3h1a3 3 0 0 1 3 3v1.414l6.071 6.071 2.122-2.121 1.414 1.414-3.536 3.536L33 30.243v5.928a3.001 3.001 0 1 1-2 0V29h-5.458c.298.947.458 1.955.458 3 0 5.523-4.477 10-10 10S6 37.523 6 32c0-5.096 3.811-9.301 8.739-9.921L11.219 8H8zm19 17v-3a1 1 0 0 0-1-1h-9.97l.758 3.03a9.9 9.9 0 0 1 3.576.97zm-15 9a4 4 0 1 1 8 0 4 4 0 0 1-8 0m20 6a1 1 0 1 0 0 2 1 1 0 0 0 0-2"
    clip-rule="evenodd"
  />
</svg>
